!!!!SEGMENT: pl-kk--kk-i-382--075_anonim--offertorium-nro-16.krn
!!!cenid: 18xx:1577
!!!COM: Anonim
!!!COM-rismid: pe30004985
!!!CDT:
!!!CNT:
!!!OTL: Offertorium Nro 16
!!!PDT:
!!!AGN: Sacred
!!!SMS-siglum: PL-Kk
!!!SMS-shelfmark: Kk.I.382
!!!SMS-shelfwork: 061 W
!!!SMS-variant:
!!!SMS-altvar:
!!!NIFC-rismid: 1001142259
!!!URL-scan: http://repozytorium.nifc.pl/skany/pl-kk-nut--i-382
!!!ONB-nifc: UWAGA: Offertoria od skanu 0041 (S/T1), 0113 (T2), 0185 (A/B1), 0262 (B2)
!!!ONB-nifc: UWAGA: obsada: S/T1, A/B1, T2, B2. Skany 0047, 0192, 0119, 0268
**kern	**text	**kern	**text	**kern	**text	**kern	**text
*part4	*part4	*part3	*part3	*part2	*part2	*part1	*part1
*staff4	*staff4	*staff3	*staff3	*staff2	*staff2	*staff1	*staff1
*Ibass	*	*Itenor	*	*Ialto	*	*Itenor	*
*I"Basso II	*	*I"Tenore II	*	*I"Alto. vel Basso I	*	*I"Soprano vel Tenore I.	*
*I'B2	*	*I'T2	*	*I'A / B1	*	*I'S / T1	*
*clefF4	*	*clefC4	*	*clefC3	*	*clefC1	*
*k[]	*	*k[]	*	*k[]	*	*k[]	*
*C:	*	*C:	*	*C:	*	*C:	*
*M3/4	*	*M3/4	*	*M3/4	*	*M3/4	*
=1	=1	=1	=1	=1	=1	=1	=1
*all\right	*	*all\right	*	*all\right	*	*all\right	*
!	!	!	!	!LO:TX:a:t=N ro. 16.	!	!	!
!LO:TX:a:t=Nro. 16.	!	!LO:TX:a:t=Nro 16.	!	!LO:TX:a:t=ReginaCeli in C.	!	!LO:TX:a:t=Nro. 16.	!
4C/	Re-	4G/	Re-	4e\	Re-	4cc\	Re-
4E\	-gi-	4G/	-gi-	4g\	-gi-	4cc\	-gi-
4C/	-na	4c\	-na	4e\	-na	4cc\	-na
=2	=2	=2	=2	=2	=2	=2	=2
*	*	*2\right	*	*2\right	*	*2\right	*
!LO:SIC:l:v:s=cae-	!	!LO:SIC:l:v:s=Cae-	!	!LO:SIC:l:v:s=Cae-	!	!LO:SIC:l:v:s=Cae-	!
(4F\	ce-	2c\	Ce-	2a\	Ce-	2dd\	Ce-
4D\)	.	.	.	.	.	.	.
4F#X\	-li	4c\	-li	4a\	-li	4dd\	-li
=3	=3	=3	=3	=3	=3	=3	=3
!LO:SIC:l:v:s=cae-	!	!LO:SIC:l:v:s=cae-	!	!LO:SIC:l:v:s=cae-	!	!LO:SIC:l:v:s=cae-	!
4G\	ce-	4B\	ce-	4g\	ce-	4dd\	ce-
4G\	-li	4c\	-li	4g\	-li	4ee\	-li
4G\	le-	4d\	le-	4b\	le-	4ff\	le-
=4	=4	=4	=4	=4	=4	=4	=4
4G\	-ta-	4d\	-ta-	4b\	-ta-	4ff\	-ta-
4C/	-re	4c\	-re	4cc\	-re	4ee\	-re
4r	.	4r	.	4r	.	4r	.
=5	=5	=5	=5	=5	=5	=5	=5
4c\	al-	4G/	al-	4cc\	al-	4ee\	al-
4B\	-le-	4G/	-le-	4dd\	-le-	4dd\	-le-
4A\	-lu-	4d\	-lu-	4cc\	-lu-	4ff#X\	-lu-
!LO:LB:g=original	!	!	!	!	!	!LO:LB:g=original	!
=6	=6	=6	=6	=6	=6	=6	=6
4G\	-ja	2d\	-ja	(4b\	-ja	2gg\	-ja
(4BB/	al-	.	.	4g\)	.	.	.
4C/)	.	4c\	al-	4g\	al-	4ee\	al-
!	!	!LO:LB:g=original	!	!LO:LB:g=original	!	!	!
=7	=7	=7	=7	=7	=7	=7	=7
*2\right	*	*	*	*	*	*	*
2D\	-le-	(4B\	-le-	(4g\	-le-	2dd\	-le-
.	.	4d\)	.	4b\)	.	.	.
4D\	-lu-	4c\	-lu-	4a\	-lu-	4f#X/	-lu-
=8	=8	=8	=8	=8	=8	=8	=8
4GG/	-ja	2B\	-ja	2g\	-ja	4g\	-ja
4r	.	.	.	.	.	4r	.
4r	.	4r	.	4r	.	4r	.
=9	=9	=9	=9	=9	=9	=9	=9
4G\	qui-	4B\	qui-	4g\	qui-	4dd\	qui-
4F#X\	-a	4c\	-a	4a\	-a	4dd\	-a
4G\	quem	4B\	quem	4g\	quem	4dd\	quem
=10	=10	=10	=10	=10	=10	=10	=10
(4G\	me-	2B\	me-	2g\	me-	2dd\	me-
4Fn\)	.	.	.	.	.	.	.
4E\	-ru-	4c#X\	-ru-	4g\	-ru-	4ee\	-ru-
=11	=11	=11	=11	=11	=11	=11	=11
4D\	-i-	4d\	-is-	4a\	-is-	4ffn\	-is-
4F\	-sti	4d\	-ti	4a\	-ti	4aa\	-ti
4E\	por-	4c#X\	por-	4a\	por-	4gg\	por-
!LO:LB:g=original	!	!	!	!	!	!	!
=12	=12	=12	=12	=12	=12	=12	=12
4C#X/	-ta-	4e\	-ta-	4a\	-ta-	4gg\	-ta-
4D/	-re.	4d\	-re	4a\	-re	4ff\	-re
4r	.	4r	.	4r	.	4r	.
!	!	!	!	!	!	!LO:LB:g=original	!
=13	=13	=13	=13	=13	=13	=13	=13
2F\	al-	4cn\	al-	4a\	al-	2ff\	al-
.	.	4d\	-le-	4a\	-le-	.	.
4F\	-le-	4c\	-lu-	4a\	-lu-	4ff\	-le-
!	!	!LO:LB:g=original	!	!	!	!	!
=14	=14	=14	=14	=14	=14	=14	=14
2G\	-lu-	(4B\	-ja	(4g\	-ja	2ff\	-lu-
.	.	4d\)	.	4b\)	.	.	.
4C/	-ja	4c\	al-	4cc\	al-	4ee\	-ja
!	!	!	!	!LO:LB:g=original	!	!	!
=15	=15	=15	=15	=15	=15	=15	=15
2F\	al-	2A\	-le-	(4f\	-le-	(4ee\	al-
.	.	.	.	4a\)	.	4dd\)	.
4F#X\	-le-	4c\	-lu-	4a\	-lu-	4cc\	-le-
=16	=16	=16	=16	=16	=16	=16	=16
4G\	-lu-	(4c\	-ja	2g\	-ja	4ee\	-lu-
4GG/	-ja	4B\)	.	.	.	4dd\	-ja
4r	.	4r	.	4r	.	4r	.
=17	=17	=17	=17	=17	=17	=17	=17
2C/	re-	(4E/	re-	(4g\	re-	2cc\	re-
.	.	4G/)	.	4e\)	.	.	.
!	!	!LO:SIC:l:v:s=-sur-	!	!LO:SIC:l:v:s=-sur-	!	!	!
4E\	-sur-	4B-X\	-xit	4g\	-su-	4cc\	-sur-
=18	=18	=18	=18	=18	=18	=18	=18
2F\	-re-	2A\	re-	(4f\	-re-	(4cc\	-re-
.	.	.	.	4a\)	.	4dd\)	.
4F#X\	-xit	4c\	-xit	4a\	-xit	4dd\	-xit
!LO:LB:g=original	!	!	!	!	!	!	!
=19	=19	=19	=19	=19	=19	=19	=19
2G\	si-	(4Bn\	si-	(4g\	si-	2dd\	si-
.	.	4d\)	.	4b\)	.	.	.
4F#X\	-cut	4c\	-cut	4a\	-cut	(8ee\L	-cut
.	.	.	.	.	.	8dd\J)	.
!	!	!	!	!	!	!LO:LB:g=original	!
=20	=20	=20	=20	=20	=20	=20	=20
4G\	di-	4B\	di-	4g\	di-	4dd\	di-
4GG/	-xit,	4B\	-xit	4g\	-xit	4dd\	-xit
4r	.	4r	.	4r	.	4r	.
!	!	!LO:LB:g=original	!	!	!	!	!
=21	=21	=21	=21	=21	=21	=21	=21
(4Fn\	Al-	2G/	al-	(4b\	al-	(4dd\	al-
4E\)	.	.	.	4cc\)	.	4cc\)	.
4D\	-le-	4B\	-le-	4g\	-le-	(8ff\L	-le-
.	.	.	.	.	.	8ee\J)	.
=22	=22	=22	=22	=22	=22	=22	=22
4C/	-lu-	4c\	-lu-	4g\	-lu-	2ee\	-lu-
4E\	-ja	4G/	-ja	4g\	-ja	.	.
4F\	al-	4A/	al-	4f\	al-	8dd\	-ja
.	.	.	.	.	.	8cc\	al-
!	!	!	!	!LO:LB:g=original	!	!	!
=23	=23	=23	=23	=23	=23	=23	=23
2G\	-le-	2G/	-le-	2d\	-le-	2cc\	-le-
4GG/	-lu-	4G/	-lu-	4d\	-lu-	4b\	-lu-
=24	=24	=24	=24	=24	=24	=24	=24
4C/	-ja	2G/	-ja	2e\	-ja,	4cc\	-ja
4r	.	.	.	.	.	4r	.
4r	.	4r	.	4r	.	4r	.
!LO:LB:g=original	!	!	!	!	!	!	!
=25	=25	=25	=25	=25	=25	=25	=25
(4F\	Al-	2G/	al-	(4b\	al-	(4dd\	al-
4E\)	.	.	.	4cc\)	.	4cc\)	.
4D\	-le-	4B/	-le-	4g\	-le-	(8ff\L	-le-
.	.	.	.	.	.	8ee\J)	.
!	!	!	!	!	!	!LO:LB:g=original	!
=26	=26	=26	=26	=26	=26	=26	=26
4C/	-lu-	4c\	-lu-	4g\	-lu-	2ee\	-lu-
4E\	-ja	4G/	-ja	4g\	-ja	.	.
4F\	al-	4A/	al-	4f\	al-	8dd\	-ja
.	.	.	.	.	.	8cc\	al-
=27	=27	=27	=27	=27	=27	=27	=27
2G\	-le-	2G/	-le-	2d\	-le-	2cc\	-le-
4GG/	-lu-	4G/	-lu-	4d\	-lu-	4b\	-lu-
=28	=28	=28	=28	=28	=28	=28	=28
2C/	-ja,	2G/	-ja,	2e\	-ja,	2cc\	-ja,
4r	.	4r	.	4r	.	4r	.
=29	=29	=29	=29	=29	=29	=29	=29
4C/	O-	4E/	o-	4g\	O-	2cc\	O-
4C/	-ra	4G/	-ra	4e\	-ra	.	.
4E\	pro	4B-X\	pro	4g\	pro	4cc\	-ra
!	!	!LO:LB:g=original	!	!	!	!	!
=30	=30	=30	=30	=30	=30	=30	=30
2F\	no-	2A\	no-	(4f\	no-	4cc\	o-
.	.	.	.	4a\)	.	4dd\	-ra
!	!	!	!	!LO:TX:b:i:t=V&colon;S&colon;	!	!	!
4F#X\	-bis	4c\	-bis	4a\	-bis	4dd\	pro
!LO:LB:g=original	!	!	!	!LO:PB:g=original	!	!	!
=31	=31	=31	=31	=31	=31	=31	=31
2G\	no-	4Bn\	pro	(4g\	no-	2dd\	no-
.	.	4d\	no-	4b\)	.	.	.
4F#X\	-bis	4c\	-bis	4a\	-bis	(8ee\L	-bis
.	.	.	.	.	.	8dd\J)	.
!	!	!	!	!	!	!LO:LB:g=original	!
=32	=32	=32	=32	=32	=32	=32	=32
4G\	De-	4B\	De-	4g\	De-	4dd\	De-
4GG/	-um	4B\	-um	4g\	-um,	4dd\	-um
4r	.	4r	.	4r	.	4r	.
=33	=33	=33	=33	=33	=33	=33	=33
(4Fn\	Al-	2G/	Al-	(4b\	al-	(4dd\	al-
4E\)	.	.	.	4cc\)	.	4cc\)	.
4D\	-le-	4B\	-le-	4g\	-le-	(8ff\L	-le-
.	.	.	.	.	.	8ee\J)	.
=34	=34	=34	=34	=34	=34	=34	=34
4C/	-lu-	4c\	-lu-	4g\	-lu-	2ee\	-lu-
4E\	-ja	4G/	-ja	4g\	-ja	.	.
4F\	al-	4A/	al-	4f\	al-	8dd\	-ja
.	.	.	.	.	.	8cc\	al-
=35	=35	=35	=35	=35	=35	=35	=35
2G\	-le-	2G/	-le-	2d\	-le-	2cc\	-le-
4GG/	-lu-	4G/	-lu-	4d\	-lu-	4b\	-lu-
=36	=36	=36	=36	=36	=36	=36	=36
4C/	-ja,	2G/	-ja	2e\	-ja	2cc\	-ja
4r	.	.	.	.	.	.	.
4r	.	4r	.	4r	.	4r	.
!LO:LB:g=original	!	!	!	!	!	!	!
=37	=37	=37	=37	=37	=37	=37	=37
(4F\	al-	2G/	al-	(4b\	al-	(4dd\	al-
4E\)	.	.	.	4cc\)	.	4cc\)	.
4D\	-le-	4B\	-le-	4g\	-le-	(8ff\L	-le-
.	.	.	.	.	.	8ee\J)	.
!	!	!LO:LB:g=original	!	!	!	!LO:LB:g=original	!
=38	=38	=38	=38	=38	=38	=38	=38
4C\	-lu-	4c\	-lu-	4g\	-lu-	2ee\	-lu-
4E\	-ja	4G/	-ja	4g\	-ja	.	.
4F\	al-	4A/	al-	4f\	al-	8dd\	-ja
.	.	.	.	.	.	8cc\	al-
=39	=39	=39	=39	=39	=39	=39	=39
2G\	-le-	2G/	-le-	2d\	-le-	2cc\	-le-
4GG/	-lu-	4G/	-lu-	4d\	-lu-	4b\	-lu-
=40	=40	=40	=40	=40	=40	=40	=40
!LO:TX:b:i:t=Seque 2dum Regina Celi. V&colon;S&colon;	!	!	!	!	!	!	!
2.C/	-ja.	2.G/	-ja.	2.e\	-ja.	2.cc\	-ja.
==	==	==	==	==	==	==	==
*-	*-	*-	*-	*-	*-	*-	*-
!!!system-decoration: [(s1,s2,s3,s4)]
!!!ENC: Marta Lawrence
!!!END: 2021-02-12
!!!ENC: Andrzej Borzym
!!!END: 2021-01-30
